X:45
T:Reel de Caribou
C:Andy D\'ejarlis
M:4/4
L:1/8
K:D
B2ED EFGA | B2ED EFGE | D2FD DADD | BDDA DDFD |
B2ED EFGA | Bdef g2fg | afge fdec |1 dBAF EdcA :|2 dBAF E4 |:
Be2B efed | Bdef edBd | Ad2A d3e | fedf edBA |
Be2B efed | Bdef g2fg | afge fdec | dBAF E4 :|

